ui/altFavicon.svg

<svg xmlns="http://www.w3.org/2000/svg" viewBox="0 0 512 512"><!--!Font Awesome Free 6.6.0 by @fontawesome - https://fontawesome.com License - https://fontawesome.com/license/free Copyright 2024 Fonticons, Inc.--><path d="M234.5 5.7c13.9-5 29.1-5 43.1 0l192 68.6C495 83.4 512 107.5 512 134.6l0 242.9c0 27-17 51.2-42.5 60.3l-192 68.6c-13.9 5-29.1 5-43.1 0l-192-68.6C17 428.6 0 404.5 0 377.4L0 134.6c0-27 17-51.2 42.5-60.3l192-68.6zM256 66L82.3 128 256 190l173.7-62L256 66zm32 368.6l160-57.1 0-188L288 246.6l0 188z"/></svg>

<?xml version="1.0" encoding="UTF-8" standalone="no" ?>
<!DOCTYPE svg PUBLIC "-//W3C//DTD SVG 1.1//EN" "http://www.w3.org/Graphics/SVG/1.1/DTD/svg11.dtd">
<svg xmlns="http://www.w3.org/2000/svg" xmlns:xlink="http://www.w3.org/1999/xlink" version="1.1" width="1080" height="1080" viewBox="0 0 1080 1080" xml:space="preserve">
<desc>Created with Fabric.js 5.2.4</desc>
<defs>
</defs>
<rect x="0" y="0" width="100%" height="100%" fill="transparent"></rect>
<g transform="matrix(1 0 0 1 540 540)" id="54dca193-d576-4099-8115-89897cd70190"  >
<rect style="stroke: none; stroke-width: 1; stroke-dasharray: none; stroke-linecap: butt; stroke-dashoffset: 0; stroke-linejoin: miter; stroke-miterlimit: 4; fill: rgb(255,255,255); fill-rule: nonzero; opacity: 1; visibility: hidden;" vector-effect="non-scaling-stroke"  x="-540" y="-540" rx="0" ry="0" width="1080" height="1080" />
</g>
<g transform="matrix(Infinity NaN NaN Infinity 0 0)" id="11d6918b-b9ac-4749-a9a7-10d6d185308d"  >
</g>
<g transform="matrix(1 0 0 1 540 540)" id="623990df-de3b-4b89-bdc8-0622a13e7ba5"  >
<path style="stroke: rgb(38,155,65); stroke-width: 0; stroke-dasharray: none; stroke-linecap: butt; stroke-dashoffset: 0; stroke-linejoin: miter; stroke-miterlimit: 4; fill: rgb(40,190,60); fill-rule: nonzero; opacity: 1;" vector-effect="non-scaling-stroke"  transform=" translate(-256, -256.05)" d="M 234.5 5.7 C 248.4 0.7000000000000002 263.6 0.7000000000000002 277.6 5.7 L 469.6 74.3 C 495 83.4 512 107.5 512 134.6 L 512 377.5 C 512 404.5 495 428.7 469.5 437.8 L 277.5 506.4 C 263.6 511.4 248.4 511.4 234.4 506.4 L 42.400000000000006 437.79999999999995 C 17 428.6 0 404.5 0 377.4 L 0 134.6 C 0 107.6 17 83.39999999999999 42.5 74.3 L 234.5 5.700000000000003 z M 256 66 L 82.3 128 L 256 190 L 429.7 128 L 256 66 z M 288 434.6 L 448 377.5 L 448 189.5 L 288 246.6 L 288 434.6 z" stroke-linecap="round" />
</g>
</svg>
